src/assets/img/providers/egt-g.svg

<svg width="32" height="32" viewBox="0 0 32 32" fill="none" xmlns="http://www.w3.org/2000/svg">
<path d="M29.1227 20.657C26.2697 22.296 22.9116 23.7882 19.2312 24.9852C14.0144 26.6792 8.97832 27.5097 4.77893 27.5225C8.89722 31.4812 15.0061 33.1012 20.8183 31.2127C26.513 29.3607 30.4568 24.6198 31.5594 19.1396C30.811 19.6458 30.0155 20.142 29.173 20.6282L29.1227 20.657Z" fill="#00AB55"/>
<path d="M22.1473 22.4831C23.8025 21.9468 25.4271 21.3204 27.014 20.6069V13.0946H24.028V11.335H31.1713C31.143 11.2426 31.1199 11.1497 31.0886 11.0573C30.35 8.77131 29.1041 6.68189 27.4441 4.94531C24.3165 5.15782 20.7752 5.84361 17.1266 7.02884C13.5334 8.19662 10.3031 9.69805 7.66832 11.335H13.0581V13.0679H8.14981V15.094H12.4816V16.773H8.14981V18.9325H13.2316V20.6654H6.00571V12.4438C2.0137 15.3039 -0.132967 18.4397 0.672417 20.9175C2.05887 25.1851 11.6737 25.8863 22.1473 22.4831ZM14.7556 13.5145C15.1947 12.7821 15.8293 12.1866 16.5881 11.7949C17.3697 11.3819 18.2495 11.1754 19.2276 11.1754C20.0448 11.1754 20.7867 11.3131 21.4533 11.5886C22.1001 11.8497 22.6756 12.2609 23.1323 12.7882L21.7464 14.0673C21.0801 13.3655 20.2759 13.0146 19.3338 13.0146C18.7384 13.0146 18.2097 13.1389 17.7477 13.3877C17.295 13.6282 16.9209 13.9936 16.6697 14.4405C16.4121 14.8936 16.2832 15.4134 16.2832 16C16.2832 16.578 16.4121 17.0933 16.6697 17.5461C16.9211 17.9928 17.2928 18.3601 17.7426 18.606C18.2004 18.8589 18.7225 18.9855 19.3087 18.9859C19.8931 18.9948 20.4705 18.8574 20.9882 18.586V15.8537H22.9609V19.6388C22.4307 20.033 21.8352 20.3309 21.2018 20.5186C20.55 20.7212 19.8716 20.825 19.1891 20.8266C18.2199 20.8266 17.349 20.6201 16.5763 20.2071C15.8231 19.8124 15.1935 19.2173 14.7571 18.4875C14.3171 17.7545 14.097 16.9258 14.097 16.0015C14.097 15.0772 14.3171 14.2482 14.7571 13.5145H14.7556Z" fill="#00AB55"/>
<path d="M31.6025 13.0947H29.173V19.5624C30.0802 19.0895 30.9357 18.6003 31.7395 18.0949C31.9579 16.4314 31.9117 14.7438 31.6025 13.0947Z" fill="#00AB55"/>
<path d="M26.7178 4.24022C22.6046 0.455586 16.6266 -1.06381 10.9325 0.786671C5.12129 2.67514 1.12979 7.57674 0.125244 13.2001C3.53003 10.7418 8.09131 8.45296 13.3081 6.75801C18.1003 5.20063 22.7391 4.3742 26.7178 4.24022Z" fill="#00AB55"/>
</svg>

<svg xmlns="http://www.w3.org/2000/svg" width="32" height="32" fill="none"><path fill="#00AB55" d="M29.123 20.657c-2.853 1.639-6.211 3.131-9.892 4.328C14.014 26.68 8.978 27.51 4.78 27.523c4.118 3.958 10.227 5.578 16.04 3.69 5.694-1.852 9.638-6.593 10.74-12.073a39.49 39.49 0 0 1-2.386 1.488l-.05.029Z"/><path fill="#00AB55" d="M22.147 22.483a47.787 47.787 0 0 0 4.867-1.876v-7.512h-2.986v-1.76h7.143c-.028-.092-.051-.185-.082-.278a15.936 15.936 0 0 0-3.645-6.112c-3.127.213-6.669.899-10.317 2.084-3.594 1.168-6.824 2.67-9.459 4.306h5.39v1.733H8.15v2.026h4.332v1.679H8.15v2.16h5.082v1.732H6.006v-8.221C2.014 15.304-.133 18.44.672 20.917c1.387 4.268 11.002 4.97 21.475 1.566Zm-7.391-8.969a4.593 4.593 0 0 1 1.832-1.72c.782-.412 1.662-.619 2.64-.619.817 0 1.559.138 2.225.414a4.4 4.4 0 0 1 1.68 1.2l-1.387 1.278c-.666-.701-1.47-1.052-2.412-1.052-.596 0-1.124.124-1.586.373-.453.24-.827.606-1.078 1.053-.258.453-.387.972-.387 1.559 0 .578.13 1.093.387 1.546.251.447.623.814 1.073 1.06.457.253.98.38 1.566.38a3.502 3.502 0 0 0 1.68-.4v-2.732h1.972v3.785a5.63 5.63 0 0 1-1.76.88 6.835 6.835 0 0 1-2.012.308c-.97 0-1.84-.207-2.613-.62a4.616 4.616 0 0 1-1.819-1.72c-.44-.732-.66-1.561-.66-2.485 0-.925.22-1.754.66-2.487h-.001Z"/><path fill="#00AB55" d="M31.602 13.095h-2.429v6.467a36.632 36.632 0 0 0 2.567-1.467 15.901 15.901 0 0 0-.137-5ZM26.718 4.24C22.605.456 16.627-1.064 10.932.787 5.122 2.675 1.13 7.577.125 13.2c3.405-2.458 7.966-4.747 13.183-6.442C18.1 5.201 22.74 4.374 26.718 4.24Z"/></svg>
